**kern	**kern	**dynam
*part1	*part1	*part1
*staff2	*staff1	*
*I"Piano	*	*
*clefF4	*clefG2	*
*k[f#c#g#]	*k[f#c#g#]	*
*M3/4	*M3/4	*
=1	=1	=1
*^	*	*
4E	4r	4r	p
=	=	=	=
2A	8r	2.r	.
.	(16F#LL	.	.
.	16EJJ	.	.
.	8DL	.	.
.	8C#	.	.
4A	8BB	.	.
.	8AAJ)	.	.
=	=	=	=
2B	(8GG#L	2.r	.
.	8FF#	.	.
.	8EE	.	.
.	8DD	.	.
4E 4G# 4B	8CC#	.	.
.	8BBBJ)	.	.
=	=	=	=
4.E 4.A 4.c#	(8AAAL	2.r	.
.	16CC#L	.	.
.	16EEJJ)	.	.
.	(8AAL	.	.
(8EL 8B	8GG#	.	.
8E 8c#	8AA	.	.
8F#J) 8B 8d	8DDJ)	.	.
=	=	=	=
(4A 4c#	8EEL	2r	.
.	16EL	.	.
.	16D#XJJ	.	.
4G#) 4B	8EL	.	.
.	8BB	.	.
4ryy	8GG#	8r	.
.	8EEJ	8G# 8B	p
*v	*v	*	*
=	=	=
8FF#L	(2A 2B	.
16F#L	.	.
16E#XJJ	.	.
8F#L	.	.
8D#X	.	.
8AA	8c#L	.
8FF#J	8d#XJ)	.
=	=	=
8GG#L	(2e	.
16G#L	.	.
16F#JJ	.	.
8G#L	.	.
8E	.	.
8A	8c#L	.
8AAJ	8f#J)	.
=	=	=
*-	*-	*-
!!!system-decoration: {(s1,s2)}
